Adwaita++-Dark/apps/16/deezer.svg

<svg height="16" width="16" xmlns="http://www.w3.org/2000/svg">
  <path d="m6 1v2h4v-2zm0 3v2h4v-2zm5 0v2h4v-2zm-5 3v2h4v-2zm5 0v2h4v-2zm-10 3v2h4v-2zm5 0v2h4v-2zm5 0v2h4v-2zm-10 3v2h4v-2zm5 0v2h4v-2zm5 0v2h4v-2z" fill="#e6ddff"/>
</svg>

<svg xmlns="http://www.w3.org/2000/svg" width="16" height="16" version="1.1">
 <path fill="#E6DDFF" d="M 6 1 L 6 3 L 10 3 L 10 1 L 6 1 z M 6 4 L 6 6 L 10 6 L 10 4 L 6 4 z M 11 4 L 11 6 L 15 6 L 15 4 L 11 4 z M 6 7 L 6 9 L 10 9 L 10 7 L 6 7 z M 11 7 L 11 9 L 15 9 L 15 7 L 11 7 z M 1 10 L 1 12 L 5 12 L 5 10 L 1 10 z M 6 10 L 6 12 L 10 12 L 10 10 L 6 10 z M 11 10 L 11 12 L 15 12 L 15 10 L 11 10 z M 1 13 L 1 15 L 5 15 L 5 13 L 1 13 z M 6 13 L 6 15 L 10 15 L 10 13 L 6 13 z M 11 13 L 11 15 L 15 15 L 15 13 L 11 13 z"/>
</svg>
